X:7420
T:Huntsman's Hornpipe
M:2/4
L:1/16
K:C
GE|C2c2 c2Bc|dBGB c2cd|ecec fdfd|gece dBGE|!
C2c2 c2Bc|dBGB c2Bc|dagf edcB|[E2c2][E2c2] [E2c2]:|!
|:ef|gfed cBAG|A2F2 F2fg|agfe dcBA|B2G2 G2ef|!
gege fafa|gege fafa|geaf edcB|[E2c2][E2c2] [E2c2]:|!
